src/images/geekity_icon.svg

<svg height="150" preserveAspectRatio="none" viewBox="0 0 150 150" width="150" xmlns="http://www.w3.org/2000/svg"><path d="m67.95 112-7.1-6.1q-.3-.2-.6-.35-1.55-.95-3.2-1.75-.25-.1-.45-.2-.15-.05-.2-.1-3.4-1.4-7.65-1.4-8.3 0-14.1 5.8-5.85 5.85-5.85 14.1 0 8.25 5.85 14.05 0 .05.05.05 4.85 4.9 11.5 5.7.05 0 .1.05 1.2.1 2.45.1.6 0 1.15 0 .55 0 1.15-.1l4.85-1.05 4-2.05 32.45-24.05q.75-.45 1.55-.85.2-.05.4-.15 1.5-.6 3.45-.6 3.7 0 6.35 2.6h.05q2.55 2.65 2.55 6.3 0 3.7-2.6 6.3-2.65 2.65-6.35 2.65-.3 0-.6 0l-2.7-.55q-.1-.05-.2-.1-.05-.05-.1-.05-.2-.1-.4-.15-.35-.25-.7-.4l-.05-.05q-.05-.05-.1-.05l-4.45-2.95-7.55 6.75 6 5.45q.6.35 1.25.7.15.05.25.1.4.2.8.4.45.3 1 .5.35.15.75.25.4.2.85.3l3.65.75q.6.1 1.15.1.55 0 1.15 0 8.3 0 14.15-5.85 3.8-3.8 5.1-8.6.7-2.6.7-5.5 0-2.85-.7-5.4-1.3-4.85-5.1-8.65v-.05q-5.9-5.8-14.15-5.8-4.25 0-7.6 1.4-.1.05-.2.1-.25.05-.55.2-1.7.85-3.2 1.8-.2.1-.4.25l-32.8 24.35-3.6.75q-.35 0-.65 0-.65 0-1.3-.05h.1q-2.95-.4-5.05-2.55l-.05-.05q-2.65-2.6-2.65-6.3 0-3.65 2.65-6.3 2.6-2.6 6.3-2.6 1.9 0 3.4.6.25.1.45.15.85.45 1.7.95l5.05 3.9zm26.55 18.7-.05-.05.15.1zm-.35-.35q-.15-.1-.25-.15l.45.2zm-7.3 8.25-.15-.1.1.05zm15.55-41.05v-39.9h-58.45v39.9zm-11-28.9v17.9h-36.45v-17.9zm3.85-38.5q0-9.3-6.65-15.9v-.05q-6.6-6.6-15.9-6.6-9.4 0-16 6.6v.05q-6.55 6.6-6.55 15.9 0 9.3 6.55 15.95 6.6 6.6 16 6.6 9.3 0 15.9-6.6 6.65-6.65 6.65-15.95m-14.45-8.15h.05q3.4 3.4 3.4 8.15 0 4.75-3.4 8.15l-.05.05q-3.35 3.35-8.1 3.35-4.8 0-8.2-3.4v.05q-3.35-3.4-3.35-8.2 0-4.8 3.35-8.15 3.4-3.4 8.2-3.4 4.75 0 8.1 3.4z"/></svg>

<svg xmlns="http://www.w3.org/2000/svg" version="1.1" xmlns:xlink="http://www.w3.org/1999/xlink" preserveAspectRatio="none" x="0px" y="0px" width="150px" height="150px" viewBox="0 0 150 150">
<defs>
<g id="Layer0_0_FILL">
<path fill="#000000" stroke="none" d="
M 67.95 112
L 60.85 105.9
Q 60.55 105.7 60.25 105.55 58.7 104.6 57.05 103.8 56.8 103.7 56.6 103.6 56.45 103.55 56.4 103.5 53 102.1 48.75 102.1 40.45 102.1 34.65 107.9 28.8 113.75 28.8 122 28.8 130.25 34.65 136.05 34.65 136.1 34.7 136.1 39.55 141 46.2 141.8 46.25 141.8 46.3 141.85 47.5 141.95 48.75 141.95 49.35 141.95 49.9 141.95 50.45 141.95 51.05 141.85
L 55.9 140.8 59.9 138.75 92.35 114.7
Q 93.1 114.25 93.9 113.85 94.1 113.8 94.3 113.7 95.8 113.1 97.75 113.1 101.45 113.1 104.1 115.7
L 104.15 115.7
Q 106.7 118.35 106.7 122 106.7 125.7 104.1 128.3 101.45 130.95 97.75 130.95 97.45 130.95 97.15 130.95
L 94.45 130.4
Q 94.35 130.35 94.25 130.3 94.2 130.25 94.15 130.25 93.95 130.15 93.75 130.1 93.4 129.85 93.05 129.7
L 93 129.65
Q 92.95 129.6 92.9 129.6
L 88.45 126.65 80.9 133.4 86.9 138.85
Q 87.5 139.2 88.15 139.55 88.3 139.6 88.4 139.65 88.8 139.85 89.2 140.05 89.65 140.35 90.2 140.55 90.55 140.7 90.95 140.8 91.35 141 91.8 141.1
L 95.45 141.85
Q 96.05 141.95 96.6 141.95 97.15 141.95 97.75 141.95 106.05 141.95 111.9 136.1 115.7 132.3 117 127.5 117.7 124.9 117.7 122 117.7 119.15 117 116.6 115.7 111.75 111.9 107.95
L 111.9 107.9
Q 106 102.1 97.75 102.1 93.5 102.1 90.15 103.5 90.05 103.55 89.95 103.6 89.7 103.65 89.4 103.8 87.7 104.65 86.2 105.6 86 105.7 85.8 105.85
L 53 130.2 49.4 130.95
Q 49.05 130.95 48.75 130.95 48.1 130.95 47.45 130.9
L 47.55 130.9
Q 44.6 130.5 42.5 128.35
L 42.45 128.3
Q 39.8 125.7 39.8 122 39.8 118.35 42.45 115.7 45.05 113.1 48.75 113.1 50.65 113.1 52.15 113.7 52.4 113.8 52.6 113.85 53.45 114.3 54.3 114.8
L 59.35 118.7 67.95 112
M 94.5 130.7
L 94.45 130.65 94.6 130.75 94.5 130.7
M 94.15 130.35
Q 94 130.25 93.9 130.2
L 94.35 130.4 94.15 130.35
M 86.85 138.6
L 86.7 138.5 86.8 138.55 86.85 138.6
M 102.4 97.55
L 102.4 57.65 43.95 57.65 43.95 97.55 102.4 97.55
M 91.4 68.65
L 91.4 86.55 54.95 86.55 54.95 68.65 91.4 68.65
M 95.25 30.15
Q 95.25 20.85 88.6 14.25
L 88.6 14.2
Q 82 7.6 72.7 7.6 63.3 7.6 56.7 14.2
L 56.7 14.25
Q 50.15 20.85 50.15 30.15 50.15 39.45 56.7 46.1 63.3 52.7 72.7 52.7 82 52.7 88.6 46.1 95.25 39.45 95.25 30.15
M 80.8 22
L 80.85 22
Q 84.25 25.4 84.25 30.15 84.25 34.9 80.85 38.3
L 80.8 38.35
Q 77.45 41.7 72.7 41.7 67.9 41.7 64.5 38.3
L 64.5 38.35
Q 61.15 34.95 61.15 30.15 61.15 25.35 64.5 22 67.9 18.6 72.7 18.6 77.45 18.6 80.8 22 Z"/>
</g>
</defs>

<g transform="matrix( 1, 0, 0, 1, 0,0) ">
<use xlink:href="#Layer0_0_FILL"/>
</g>
</svg>
